img/chevron-up.svg

<svg fill="none" height="800" viewBox="0 0 24 24" width="800" xmlns="http://www.w3.org/2000/svg"><path clip-rule="evenodd" d="m3.29297 16.9142c.39052.3905 1.02369.3905 1.41421 0l7.29292-7.29288 7.2929 7.29288c.3905.3905 1.0237.3905 1.4142 0l.7071-.7071c.3905-.3905.3905-1.0237 0-1.4142l-8.3536-8.35356c-.5858-.58579-1.5355-.58579-2.1213 0l-8.35354 8.35356c-.39052.3905-.39052 1.0237 0 1.4142z" fill="#000" fill-rule="evenodd"/></svg>

<?xml version="1.0" encoding="utf-8"?><!-- Uploaded to: SVG Repo, www.svgrepo.com, Generator: SVG Repo Mixer Tools -->
<svg width="800px" height="800px" viewBox="0 0 24 24" fill="none" xmlns="http://www.w3.org/2000/svg">
<path fill-rule="evenodd" clip-rule="evenodd" d="M3.29297 16.9142C3.68349 17.3047 4.31666 17.3047 4.70718 16.9142L12.0001 9.62132L19.293 16.9142C19.6835 17.3047 20.3167 17.3047 20.7072 16.9142L21.4143 16.2071C21.8048 15.8166 21.8048 15.1834 21.4143 14.7929L13.0607 6.43934C12.4749 5.85355 11.5252 5.85355 10.9394 6.43934L2.58586 14.7929C2.19534 15.1834 2.19534 15.8166 2.58586 16.2071L3.29297 16.9142Z" fill="#000000"/>
</svg>
